src/standard/locker.svg

<svg xmlns="http://www.w3.org/2000/svg" viewBox="0 0 36 36">
  <path d="M14.5 8.38h-6a.62.62 0 0 0 0 1.24h6a.62.62 0 0 0 0-1.24Zm0 3h-6a.62.62 0 0 0 0 1.24h6a.62.62 0 0 0 0-1.24Zm7-1.76h6a.62.62 0 0 0 0-1.24h-6a.62.62 0 0 0 0 1.24Zm0 3h6a.62.62 0 0 0 0-1.24h-6a.62.62 0 0 0 0 1.24Zm-13 4.22a.63.63 0 0 0-.62.63v3.06a.62.62 0 1 0 1.24 0v-3.06a.63.63 0 0 0-.62-.63Z"/>
  <path d="M31 4.38H5a.62.62 0 0 0-.62.62v26a.62.62 0 0 0 .62.62h26a.62.62 0 0 0 .62-.62V5a.62.62 0 0 0-.62-.62ZM5.62 5.62h11.76v24.76H5.62Zm24.76 24.76H18.62V5.62h11.76Z"/>
  <path d="M21.5 21.16a.63.63 0 0 0 .62-.63v-3.06a.62.62 0 1 0-1.24 0v3.06a.63.63 0 0 0 .62.63Z"/>
</svg>

<svg id="ad333cc9-fa15-4a6f-a6f5-833f1fe8bc42" data-name="Layer 1" xmlns="http://www.w3.org/2000/svg" viewBox="0 0 36 36">
  <title>Locker icon - Black</title>
<desc>storage, cabinet, personal, standard, GWS, office and work</desc>
<metadata><?xpacket begin="﻿" id="W5M0MpCehiHzreSzNTczkc9d"?>
<x:xmpmeta xmlns:x="adobe:ns:meta/" x:xmptk="Adobe XMP Core 8.0-c001 1.000000, 0000/00/00-00:00:00        ">
   <rdf:RDF xmlns:rdf="http://www.w3.org/1999/02/22-rdf-syntax-ns#">
      <rdf:Description rdf:about=""
            xmlns:xmp="http://ns.adobe.com/xap/1.0/"
            xmlns:dc="http://purl.org/dc/elements/1.1/"
            xmlns:cq="http://www.day.com/jcr/cq/1.0"
            xmlns:tiff="http://ns.adobe.com/tiff/1.0/">
         <xmp:rhcc-effective-on>2023-12-08T17:46:52.725Z</xmp:rhcc-effective-on>
         <xmp:rhcc-metadata-complete-moderator>pending</xmp:rhcc-metadata-complete-moderator>
         <xmp:rhcc-translation-id>TRA870985d0-b4d1-46f9-a830-c73d334c15fe</xmp:rhcc-translation-id>
         <xmp:brand-content-type>Icon</xmp:brand-content-type>
         <xmp:CreateDate>2023-12-08T17:46:52.725Z</xmp:CreateDate>
         <xmp:rhcc-effective-on-set-on-upload>true</xmp:rhcc-effective-on-set-on-upload>
         <xmp:rhcc-metadata-complete-uploader>pending</xmp:rhcc-metadata-complete-uploader>
         <xmp:rhcc-file-last-modified>2023-12-08T17:47:02.065Z</xmp:rhcc-file-last-modified>
         <xmp:rhcc-audience>rhcc-audience:internal</xmp:rhcc-audience>
         <xmp:rhcc-rights-restricted>no</xmp:rhcc-rights-restricted>
         <xmp:brand-content-subtype>Icon</xmp:brand-content-subtype>
         <xmp:rhcc-derivative-id>DER870985d0-b4d1-46f9-a830-c73d334c15fe</xmp:rhcc-derivative-id>
         <xmp:brand-logo-color>Black</xmp:brand-logo-color>
         <xmp:rhcc-notify-portal-subscribers-on-change>yes</xmp:rhcc-notify-portal-subscribers-on-change>
         <dc:format>image/svg+xml</dc:format>
         <dc:modified>2024-02-09T20:23:22.897Z</dc:modified>
         <dc:title>
            <rdf:Alt>
               <rdf:li xml:lang="x-default">Locker icon - Black</rdf:li>
            </rdf:Alt>
         </dc:title>
         <dc:description>
            <rdf:Alt>
               <rdf:li xml:lang="x-default">storage, cabinet, personal, standard, GWS, office and work</rdf:li>
            </rdf:Alt>
         </dc:description>
         <cq:lastReplicationAction_scene7>Activate</cq:lastReplicationAction_scene7>
         <cq:lastReplicationAction_publish>Activate</cq:lastReplicationAction_publish>
         <cq:lastReplicated_publish>2024-02-09T22:04:18.898Z</cq:lastReplicated_publish>
         <cq:lastReplicatedBy>workflow-process-service</cq:lastReplicatedBy>
         <cq:lastReplicationAction>Activate</cq:lastReplicationAction>
         <cq:lastReplicatedBy_publish>workflow-process-service</cq:lastReplicatedBy_publish>
         <cq:isDelivered>true</cq:isDelivered>
         <cq:lastReplicated>2024-02-09T22:04:18.898Z</cq:lastReplicated>
         <cq:lastReplicatedBy_scene7>workflow-process-service</cq:lastReplicatedBy_scene7>
         <cq:lastReplicated_scene7>2024-02-09T22:04:18.898Z</cq:lastReplicated_scene7>
         <tiff:ImageLength>36</tiff:ImageLength>
         <tiff:ImageWidth>36</tiff:ImageWidth>
      </rdf:Description>
   </rdf:RDF>
</x:xmpmeta>
                                                                                                    
                                                                                                    
                                                                                                    
                                                                                                    
                                                                                                    
                                                                                                    
                                                                                                    
                                                                                                    
                                                                                                    
                                                                                                    
                                 
<?xpacket end="w"?></metadata>
<g>
    <path d="M14.5,8.38h-6a.62.62,0,0,0,0,1.24h6A.62.62,0,0,0,14.5,8.38Z"/>
    <path d="M14.5,11.38h-6a.62.62,0,0,0,0,1.24h6A.62.62,0,0,0,14.5,11.38Z"/>
    <path d="M21.5,9.62h6a.62.62,0,0,0,0-1.24h-6A.62.62,0,0,0,21.5,9.62Z"/>
    <path d="M21.5,12.62h6a.62.62,0,0,0,0-1.24h-6A.62.62,0,0,0,21.5,12.62Z"/>
    <path d="M8.5,16.84a.63.63,0,0,0-.62.63v3.06a.62.62,0,1,0,1.24,0V17.47A.63.63,0,0,0,8.5,16.84Z"/>
    <path d="M31,4.38H5A.62.62,0,0,0,4.38,5V31a.62.62,0,0,0,.62.62H31a.62.62,0,0,0,.62-.62V5A.62.62,0,0,0,31,4.38ZM5.62,5.62H17.38V30.38H5.62ZM30.38,30.38H18.62V5.62H30.38Z"/>
    <path d="M21.5,21.16a.63.63,0,0,0,.62-.63V17.47a.62.62,0,1,0-1.24,0v3.06A.63.63,0,0,0,21.5,21.16Z"/>
  </g>
</svg>
